X:1
T:How Sweet The Moonlight Sleeps
T:How Sweet The Moonlight Sleeps
T:A Four-Part Song
T:D. Emlyn Evans
T:William Shakespeare
C:D. Emlyn Evans
Z:William Shakespeare
%%score [ 1 2 3 4 ]
L:1/8
Q:1/4=70
M:3/4
K:Eb
V:1 treble nm="Soprano" snm="S."
V:2 treble nm="Alto" snm="A."
V:3 treble-8 nm="Tenor" snm="T."
V:4 bass nm="Bass" snm="B."
V:1
"^Andantino"!mp! B2 | B3 A FG | E4- E G |!<(! AG F2 c2!<)! | B4 z2 |!<(! cB =A2 e2!<)! | %6
w: How|sweet the moon- light|sleeps, _ how|sweet the moon- light|sleeps,|sleeps up- on this|
!>(! (e2 d2)!>)! z2 | z6 | (e2 =A2)!>(! d2- | d3!>)! c B=A | (=A2 G) z!>(! e2-!>)! | e3 d cB | %12
w: bank, _||sleeps, _ sleeps|_ up- on this|bank, _ sleeps|_ up- on this|
 (B2 =A2) z2 | (f2 B2) g2 | g3 f de | (d2 c2) e2- | e3 e!<(! e=A!<)! |!>(! (=A6!>)! | %18
w: bank, _|sleeps, _ how|sweet the moon- light|sleeps, _ sleeps|_ up- on this|bank,|
 B4)"^dim." (B2- | B2 =A4 | G4) F2 | F4 F2 | F6- | !fermata!F3!mf!"^Più mosso." B =AF | d3 f B=A | %25
w: _ sleeps|_ _|* up-|on this|bank.|_ Here will we|sit and let the|
 (GB e) d (cB | =A)c (fB e2- | ef/e/ dc) (B2- | Bc/B/ =AF) BF | _A6- | %30
w: sounds _ _ of mu- *|* sic creep, _ _|_ _ _ _ _ creep|_ _ _ _ _ in our|ears.|
 !fermata!A"^dolce."!p! G GG GG | (B6 | A) F FF FF | (A6 | G) z z4 | z G G2 G2 | GG GG G2- | %37
w: _ Soft still- ness and the|night,|_ soft still- ness and the|night|_|be- come the|touch- es of sweet har-|
 G2 ^F4 | !fermata!G2"^più forte." c2 =BG | e4 e2- | e3 e dG | g4 g2 | g>f (ef) (ed) | c2 f2 (fe- | %44
w: * mo-|ny. Here will we|sit, here,|_ here will we|sit, and|let the sounds _ of _|mu- sic creep _|
 ed/c/) d2 d2 | !fermata!e4!mf! =A2 | B6- | B3 A FG | (E6- | EG A) F BA | G4 z G | %51
w: _ _ _ in our|ears. How|sweet|_ the moon- light|sleeps|_ _ _ up- on this|bank, how|
!<(! AG F2 c2!<)! |!>(! B6- | B2!>)! z4 |!p! (G6- |!<(! G3 F!<)!!>(! A) G!>)! |"^rall." C4 D2 | %57
w: sweet the moon- light|sleeps,|_|sleeps|_ _ _ up-|on this|
 E6- | !fermata!E2 z2 |] %59
w: bank.|_|
V:2
!mp! E2 | EE E3 D | E4- E =E |!<(! F=E F2 F2!<)! |!<(! (B,C D=E!<)! F) C |!<(! F4 =A2!<)! | %6
w: How|sweet the moon- light|sleeps, _ how|sweet the moon- light|sleeps _ _ _ _ up-|on this|
!>(! (=A2 B2)!>)! z2 | (A2 G2) z2 | (G2 ^F2)!>(! B2- | B3!>)! =A G^F | (^F2 G) z!>(! c2-!>)! | %11
w: bank, _|sleeps, _|sleeps, _ sleeps|_ up- on this|bank, _ sleeps|
 c3 B =AB | F4 z2 | (=A2 B2) z2 | (=B2 c2) z2 | G6- | G3 C!<(! FF!<)! |!>(! F6-!>)! | F4 z2 | %19
w: _ up- on this|bank,|sleeps, _|sleeps, _|sleeps|_ up- on this|bank,|_|
 z2 z2 (F2- | F2 E4 | D4) D2 | C4 E2 | (E2 !fermata!D)!mf! F FF | F3 F FF | (F E3) G2 | %26
w: sleeps|_ _|* up-|on this|bank. _ Here will we|sit and let the|sounds _ of|
 (G F2) =A (GC | F3 E) D=E | F6- | F6- | !fermata!F!p! E EE EE | (=E6 | F) F FF FF | (F6 | %34
w: mu- * sic creep _|_ _ in our|ears.|_|* Soft still- ness and the|night,|_ soft still- ness and the|night|
 D) z z4 | z G G2 F2 | ED EF (E2- | E2 D2) C2 | !fermata!D2"^più forte." G2 GF | E4 E2- | E3 C GG | %41
w: _|be- come the|touch- es of sweet har-|* * mo-|ny. Here will we|sit, here,|_ here will we|
 (G2 c2) =B2 | c>G (GA) (GF) | (E2 A2) (Gc) | F2 (BA) (FG) | !fermata!E4!mf! E2 | E3 B, ED | %47
w: sit, _ and|let the sounds _ of _|mu- * sic _|creep in _ our _|ears. How|sweet, how sweet the|
 C4 D2 | (E6- | E=E F) _E DF | E4 z _D |!<(! C=E F2 ^F2!<)! |!>(! (G6 | E2)!>)! z2 z2 |!p! (E6 | %55
w: moon- light|sleeps|_ _ _ up- on this|bank, how|sweet the moon- light|sleeps,|_|sleeps|
 D4) D2 |"^rall." C4 B,2 | B,6- | !fermata!B,2 z2 |] %59
w: _ up-|on this|bank.|_|
V:3
!mp! (ed) | c3 _c BA | (G2 B) A G B |!<(! AB c2 d2!<)! | e2 B2 cB |!<(! (=AB c2) f2!<)! | %6
w: How _|sweet the moon- light|sleeps, _ how sweet, how|sweet the moon- light|sleeps, _ sleeps up-|on _ _ this|
!>(! f4!>)! z2 | (f2 B2) z2 | z6 | z2 z2!>(! e2-!>)! | e3 d cB | (B2 =A) z !>!f2- | f3 e dc | %13
w: bank,|sleeps, _||sleeps,|_ up- on this|bank, _ sleeps|_ up- on this|
 (e2 d2) z2 | (d2 c2) f2 | f3 e cd | (B2 =A2)!<(! c2-!<)! | c3 c!>(! fe | (e2!>)! d2 _d2) | %19
w: bank, _|sleeps, _ how|sweet the moon- light|sleeps, _ sleeps|_ up- on this|bank, _ _|
 (c4 B2- | B2 =A2) c2 | (c2 B2) (B2- | B3 =A GA) | (=A2 !fermata!B)!mf! B ce | (df B) =A Bd | %25
w: sleeps _|_ _ up-|on _ this|_ _ _ _|bank. _ Here will we|sit _ _ and let the|
 (B g2) f (ed | c)=A (B3 c/B/ | =Ac) fA B2 | (c=A/B/ cA) Be | (e4 dc | !fermata!d)!p! B BB ee | %31
w: sounds _ of mu- *|* sic creep, _ _|_ _ in our ears,|creep _ _ _ _ in our|ears. _ _|_ Soft still- ness and the|
 (_d6 | c) A AA _dd | (c6 | =B) z z4 | z G G2 d2 | c=B cd (dG | c4) c2 | %38
w: night,|_ soft still- ness and the|night|_|be- come the|touch- es of sweet har- *|* mo-|
 !fermata!=B2"^più forte." c2 dd | c4 c2- | c3 c =Bd | (ce ag) (fg) | e>d c2 =B2 | c4 c2 | %44
w: ny. Here will we|sit, here,|_ here will we|sit, _ _ _ and _|let the sounds of|mu- sic|
 B2 f2 A2 | !fermata!G4!mf! E2 | G4 z E | AG F2 B2 | B3 B e_d | c4 B2 | B4 z =E | %51
w: creep in our|ears. How|sweet, how|sweet the moon- light|sleeps, how sweet the|moon- light|sleeps, how|
!<(! (FG A) B ce!<)! |!>(! (e6 | G2)!>)! z2 z2 |!p!!<(! (B3!<)! G!>(! c) B!>)! | A6- | %56
w: sweet _ _ the moon- light|sleeps,|_|sleeps _ _ up-|on|
"^rall." A4 A2 | G6- | !fermata!G2 z2 |] %59
w: _ this|bank.|_|
V:4
!mp! G,,2 | A,,3 A,, B,,B,, | (E,B,, G,F, E,) C, |!<(! F,G, A,2 A,2!<)! | G,2 z G, =A,G, | %5
w: How|sweet the moon- light|sleeps, _ _ _ _ how|sweet the moon- light|sleeps, how sweet the|
!<(! F,4 C2!<)! |!>(! B,4!>)! z2 | (D,2 E,2) z2 | (C,2 D,2) z2 | z2 z2!>(! C2-!>)! | C3 B, =A,G, | %11
w: moon- light|sleeps,|sleeps, _|sleeps, _|sleeps,|_ up- on this|
 (G,2 F,) z !>!D2- | D3 C B,=A, | (C2 B,2) z2 | (G,2 A,2) G,2 | C,6 |!<(! F,6!<)! |!>(! B,,6-!>)! | %18
w: bank, _ sleeps|_ up- on this|bank, _|sleeps _ up-|on|this|bank.|
 B,,6- | B,,6- | B,,6- | B,,6- | B,,6- | !fermata!B,,3!mf! D, C,=A,, | B,,3 C, D,B,, | E,4 E,2 | %26
w: _|||||* Here will we|sit and let the|sounds of|
 (F,2 D,2) E,2 | (F,4 G,2) | (F,3 E,) D,C, | B,,6- | !fermata!B,,!p! E, E,E, C,C, | (G,6 | %32
w: mu- * sic|creep, _|creep _ in our|ears.|_ Soft still- ness and the|night,|
 A,) _D, D,D, B,,B,, | (F,6 | G,) G,, G,,2 G,,2 | G,,4 G,,2 | G,,4 G,,2 | A,,4 A,,2 | %38
w: _ soft still- ness and the|night|_ be- come the|touch- es|of sweet|har- mo-|
 !fermata!G,,2"^più forte." E,2 D,=B,, | (C,E, A,G,) ^F,2- | F,3 ^F, G,=F, | E,4 D,2 | %42
w: ny. Here will we|sit, _ _ _ here,|_ here will we|sit and|
 C,>C, C2 G,2 | A,4 =A,2 | B,2 B,,2 B,,2 | !fermata!C,4!mf! _C,2 | B,,4 G,,2 | A,,3 A, B,A, | %48
w: let the sounds of|mu- sic|creep in our|ears. How|sweet, how|sweet the moon- light|
 G,4 z G, | A,G, F,2 B,,2 | (E,3 _D, B,,) C, |!<(! A,,4 =A,,2!<)! |!>(! B,,6!>)! |!p! B,,6- | %54
w: sleeps, how|sweet the moon- light|sleeps _ _ up-|on this|bank,|sleeps|
 B,,4 B,,2 | B,,6- |"^rall." B,,4 B,,2 | [E,,E,]6- | !fermata![E,,E,]2 z2 |] %59
w: _ up-|on|_ this|bank.|_|

